Papirus/64x64/apps/celeste.svg

<?xml version="1.0" encoding="UTF-8" standalone="no"?>
<svg
   id="_图层_1"
   version="1.1"
   viewBox="0 0 64 64" width="64" height="64"
   sodipodi:docname="celeste.svg"
   xml:space="preserve"
   inkscape:version="1.4 (e7c3feb100, 2024-10-09)"
   xmlns:inkscape="http://www.inkscape.org/namespaces/inkscape"
   xmlns:sodipodi="http://sodipodi.sourceforge.net/DTD/sodipodi-0.dtd"
   xmlns="http://www.w3.org/2000/svg"
   xmlns:svg="http://www.w3.org/2000/svg"><sodipodi:namedview
     id="namedview26"
     pagecolor="#505050"
     bordercolor="#eeeeee"
     borderopacity="1"
     inkscape:showpageshadow="0"
     inkscape:pageopacity="0"
     inkscape:pagecheckerboard="0"
     inkscape:deskcolor="#505050"
     inkscape:zoom="10.6875"
     inkscape:cx="32"
     inkscape:cy="27.22807"
     inkscape:window-width="1920"
     inkscape:window-height="939"
     inkscape:window-x="0"
     inkscape:window-y="34"
     inkscape:window-maximized="1"
     inkscape:current-layer="_图层_1" /><!-- Generator: Adobe Illustrator 29.0.1, SVG Export Plug-In . SVG Version: 2.1.0 Build 192)  --><defs
     id="defs6"><style
       id="style1">
      .st0 {
        fill-opacity: .5;
      }

      .st0, .st1, .st2, .st3, .st4, .st5, .st6, .st7 {
        fill: #fff;
      }

      .st8 {
        fill: #133c9a;
      }

      .st2, .st9 {
        display: none;
      }

      .st3 {
        fill-opacity: .2;
      }

      .st4 {
        fill-opacity: .9;
      }

      .st10 {
        fill: #3370ff;
      }

      .st11 {
        fill: url(#_未命名的渐变_3);
      }

      .st12 {
        fill: url(#_未命名的渐变);
      }

      .st5 {
        fill-opacity: .3;
      }

      .st6 {
        fill-opacity: 0;
      }

      .st7 {
        fill-opacity: .7;
      }

      .st13 {
        fill: #00d6b9;
      }

      .st14 {
        fill: url(#_未命名的渐变_2);
      }
    </style><radialGradient
       id="_未命名的渐变"
       data-name="未命名的渐变"
       cx="123.9"
       cy="-40.2"
       fx="123.9"
       fy="-40.2"
       r="59.4"
       gradientTransform="translate(-26.8 25.5) scale(.6 -.7)"
       gradientUnits="userSpaceOnUse"><stop
         offset="0"
         stop-color="#db202e"
         id="stop1" /><stop
         offset="1"
         stop-color="#e01b24"
         id="stop2" /></radialGradient><radialGradient
       id="_未命名的渐变_2"
       data-name="未命名的渐变 2"
       cx="67.6"
       cy="26.8"
       fx="67.6"
       fy="26.8"
       r="105.2"
       gradientTransform="translate(-26.6 25.3) scale(.6 -.7)"
       gradientUnits="userSpaceOnUse"><stop
         offset="0"
         stop-color="#ffb648"
         id="stop3" /><stop
         offset="1"
         stop-color="#ff7800"
         stop-opacity="0"
         id="stop4" /></radialGradient><radialGradient
       id="_未命名的渐变_3"
       data-name="未命名的渐变 3"
       cx="61.7"
       cy="18.6"
       fx="61.7"
       fy="18.6"
       r="68"
       gradientTransform="translate(-26.8 25.8) scale(.6 -.7)"
       gradientUnits="userSpaceOnUse"><stop
         offset="0"
         stop-color="#c64600"
         id="stop5" /><stop
         offset="1"
         stop-color="#a51d2d"
         id="stop6" /></radialGradient></defs><path
     class="st1"
     d="M47.5,64.1H13.8c-7.6,0-13.8-6.3-13.8-13.8V13.7C0,6.2,6.2,0,13.7,0h36.6c7.5,0,13.7,6.2,13.7,13.7v36.6c0,7.5-6.2,13.7-13.7,13.7h-2.9.1Z"
     id="path6"
     style="fill:#ffffff;fill-opacity:1" /><g
     id="g26"
     transform="translate(-0.74853801,-1.3830409)"><path
       style="opacity:0.2"
       d="m 32,7 v 4 H 20 v 4 h -4 v 12 h -4 v 16 h 4 v 4 h 4 v 4 h 4 v 4 h 4 v 4 h 8 v -4 h 4 v -4 h 4 v -4 h 4 v -4 h 4 V 27 H 48 V 15 H 44 V 11 H 40 V 7 Z"
       id="path1" /><path
       style="fill:#3f3f3f"
       d="m 32.666666,6.6666668 v 4.0000002 h -12 v 4 h -3.999999 v 11.999999 h -4 v 14.666668 h 4 v 4 h 3.999999 v 3.999998 h 4 v 4.000002 h 4 v 4 h 6.666668 v -4 h 4 v -4.000002 h 4 v -3.999998 h 3.999998 v -4 h 4 V 26.666666 h -4 V 14.666667 h -3.999998 v -4 h -4 V 6.6666668 Z"
       id="path2" /><path
       style="fill:#e24242"
       d="m 24,26 v 4 h -4 -4 v 4 4 4 h 4 v -4 -4 h 4 v 4 4 h 4 4 4 4 v 4.000002 h 4 V 42 h 4 v -4 -4 -4 h -4 v 4 4 h -4 v -4 -4 h 4 V 26 H 40 36 28 Z M 40,46.000002 H 36 V 50 h 4 z M 36,50 h -4 -4 v 4 h 4 4 z m -8,0 V 46.000002 H 24 V 50 Z M 24,46.000002 V 42 h -4 v 4.000002 z M 28,30 h 4 v 4 4 h -4 v -4 z"
       id="path3" /><rect
       style="fill:#24a16e"
       width="8"
       height="4"
       x="32"
       y="14"
       id="rect3" /><path
       style="fill:#481574"
       d="m 24,18 v 4.000002 h 4 V 18 Z m 4,4.000002 V 26 h 4 4 v -3.999998 h -4 z m 8,0 h 4 V 18 h -4 z m 4,0 V 26 h 4 v -3.999998 z m -16,0 H 20 V 26 h 4 z"
       id="path4" /><path
       style="fill:#4f4f4f"
       d="M 32,6.0000004 V 10 h 8 V 6.0000004 Z M 40,10 v 4 h 4 v -4 z m 4,4 v 4 h -4 v 4.000002 h 4 V 26 h 4 V 14 Z m 4,12 v 16 h 4 V 26 Z m 0,16 h -4 v 4.000002 h 4 z m -4,4.000002 H 40 V 50 h 4 z M 40,50 h -4 v 4 h 4 z m -4,4 h -8 v 4 h 8 z m -8,0 v -4 h -4 v 4 z M 24,50 V 46.000002 H 20 V 50 Z M 20,46.000002 V 42 h -4 v 4.000002 z M 16,42 V 26 h -4 v 16 z m 0,-16 h 4 v -3.999998 h 4 V 18 h -4 v -4 h -4 z m 4,-12 h 8 v 4 h 4 V 14 10 H 20 Z"
       id="path5" /><rect
       style="fill:#890e35"
       width="4"
       height="4"
       x="40"
       y="38"
       id="rect5" /><path
       style="fill:#fe8b55"
       d="m 20,26 v 4 h 4 v -4 z m 8,4 v 4 h 4 v -4 z m 12,0 v 4 h 4 v -4 z m -20,4 v 4 h 4 v -4 z"
       id="path6-9" /><path
       style="fill:#890e35"
       d="M 24,22.000002 V 26 h 4 v -3.999998 z m 12,0 V 26 h 4 V 22.000002 Z M 16,26 v 4 h 4 v -4 z m 28,0 v 4 h 4 v -4 z m -16,8 v 4 h 4 v -4 z m 12,0 v 4 h 4 v -4 z m -20,4 v 4 h 4 v -4 z m 4,4 v 4.000002 h 4 V 50 h 4 4 v -3.999998 h 4 V 42 h -4 -4 -4 z"
       id="path7" /><path
       style="fill:#7cd042"
       d="m 32,10 v 4 h 4 4 v -4 h -4 z m 8,4 v 4 h 4 v -4 z m -20,0 v 4 h 4 4 v -4 h -4 z m 8,4 v 4.000002 h 4 4 V 18 h -4 z"
       id="path8" /><path
       style="opacity:0.1;fill:#ffffff"
       d="m 32,6 v 1 h 8 V 6 Z m -12,4 v 1 h 12 v -1 z m 20,0 v 1 h 4 v -1 z m -24,4 v 1 h 4 v -1 z m 28,0 v 1 h 4 V 14 Z M 12,26 v 1 h 4 v -1 z m 36,0 v 1 h 4 v -1 z"
       id="path9" /><path
       style="opacity:0.2"
       d="m 32,14 v 1 h 8 v -1 z m -12,4 v 1 h 8 v -1 z m 20,0 v 1 h 4 v -1 z m -12,4 v 1 h 8 v -1 z m -8,8 v 1 h 4 v -1 z m 8,4 v 1 h 4 v -1 z m 12,0 v 1 h 4 v -1 z m -20,4 v 1 h 4 v -1 z m -4,4 v 1 h 4 v -1 z m 8,0 v 1 h 16 v -1 z m 20,0 v 1 h 4 v -1 z m -24,4 v 1 h 4 v -1 z m 20,0 v 1 h 4 v -1 z m -16,4 v 1 h 4 v -1 z m 12,0 v 1 h 4 v -1 z m -8,4 v 1 h 8 v -1 z"
       id="path10" /></g></svg>

<svg xmlns="http://www.w3.org/2000/svg" width="64" height="64" version="1">
 <path style="opacity:0.2" d="m 32,7 v 4 H 20 v 4 h -4 v 12 h -4 v 16 h 4 v 4 h 4 v 4 h 4 v 4 h 4 v 4 h 8 v -4 h 4 v -4 h 4 v -4 h 4 v -4 h 4 V 27 H 48 V 15 H 44 V 11 H 40 V 7 Z"/>
 <path style="fill:#3f3f3f" d="m 32.666666,6.6666668 v 4.0000002 h -12 v 4 h -3.999999 v 11.999999 h -4 v 14.666668 h 4 v 4 h 3.999999 v 3.999998 h 4 v 4.000002 h 4 v 4 h 6.666668 v -4 h 4 v -4.000002 h 4 v -3.999998 h 3.999998 v -4 h 4 V 26.666666 h -4 V 14.666667 h -3.999998 v -4 h -4 V 6.6666668 Z"/>
 <path style="fill:#e24242" d="m 24,26 v 4 h -4 -4 v 4 4 4 h 4 v -4 -4 h 4 v 4 4 h 4 4 4 4 v 4.000002 h 4 V 42 h 4 v -4 -4 -4 h -4 v 4 4 h -4 v -4 -4 h 4 V 26 H 40 36 28 Z M 40,46.000002 H 36 V 50 h 4 z M 36,50 h -4 -4 v 4 h 4 4 z m -8,0 V 46.000002 H 24 V 50 Z M 24,46.000002 V 42 h -4 v 4.000002 z M 28,30 h 4 v 4 4 h -4 v -4 z"/>
 <rect style="fill:#24a16e" width="8" height="4" x="32" y="14"/>
 <path style="fill:#481574" d="m 24,18 v 4.000002 h 4 V 18 Z m 4,4.000002 V 26 h 4 4 v -3.999998 h -4 z m 8,0 h 4 V 18 h -4 z m 4,0 V 26 h 4 v -3.999998 z m -16,0 H 20 V 26 h 4 z"/>
 <path style="fill:#4f4f4f" d="M 32,6.0000004 V 10 h 8 V 6.0000004 Z M 40,10 v 4 h 4 v -4 z m 4,4 v 4 h -4 v 4.000002 h 4 V 26 h 4 V 14 Z m 4,12 v 16 h 4 V 26 Z m 0,16 h -4 v 4.000002 h 4 z m -4,4.000002 H 40 V 50 h 4 z M 40,50 h -4 v 4 h 4 z m -4,4 h -8 v 4 h 8 z m -8,0 v -4 h -4 v 4 z M 24,50 V 46.000002 H 20 V 50 Z M 20,46.000002 V 42 h -4 v 4.000002 z M 16,42 V 26 h -4 v 16 z m 0,-16 h 4 v -3.999998 h 4 V 18 h -4 v -4 h -4 z m 4,-12 h 8 v 4 h 4 V 14 10 H 20 Z"/>
 <rect style="fill:#890e35" width="4" height="4" x="40" y="38"/>
 <path style="fill:#fe8b55" d="m 20,26 v 4 h 4 v -4 z m 8,4 v 4 h 4 v -4 z m 12,0 v 4 h 4 v -4 z m -20,4 v 4 h 4 v -4 z"/>
 <path style="fill:#890e35" d="M 24,22.000002 V 26 h 4 v -3.999998 z m 12,0 V 26 h 4 V 22.000002 Z M 16,26 v 4 h 4 v -4 z m 28,0 v 4 h 4 v -4 z m -16,8 v 4 h 4 v -4 z m 12,0 v 4 h 4 v -4 z m -20,4 v 4 h 4 v -4 z m 4,4 v 4.000002 h 4 V 50 h 4 4 v -3.999998 h 4 V 42 h -4 -4 -4 z"/>
 <path style="fill:#7cd042" d="m 32,10 v 4 h 4 4 v -4 h -4 z m 8,4 v 4 h 4 v -4 z m -20,0 v 4 h 4 4 v -4 h -4 z m 8,4 v 4.000002 h 4 4 V 18 h -4 z"/>
 <path style="opacity:0.1;fill:#ffffff" d="M 32 6 L 32 7 L 40 7 L 40 6 L 32 6 z M 20 10 L 20 11 L 32 11 L 32 10 L 20 10 z M 40 10 L 40 11 L 44 11 L 44 10 L 40 10 z M 16 14 L 16 15 L 20 15 L 20 14 L 16 14 z M 44 14 L 44 15 L 48 15 L 48 14 L 44 14 z M 12 26 L 12 27 L 16 27 L 16 26 L 12 26 z M 48 26 L 48 27 L 52 27 L 52 26 L 48 26 z"/>
 <path style="opacity:0.2" d="M 32 14 L 32 15 L 40 15 L 40 14 L 32 14 z M 20 18 L 20 19 L 28 19 L 28 18 L 20 18 z M 40 18 L 40 19 L 44 19 L 44 18 L 40 18 z M 28 22 L 28 23 L 36 23 L 36 22 L 28 22 z M 20 30 L 20 31 L 24 31 L 24 30 L 20 30 z M 28 34 L 28 35 L 32 35 L 32 34 L 28 34 z M 40 34 L 40 35 L 44 35 L 44 34 L 40 34 z M 20 38 L 20 39 L 24 39 L 24 38 L 20 38 z M 16 42 L 16 43 L 20 43 L 20 42 L 16 42 z M 24 42 L 24 43 L 40 43 L 40 42 L 24 42 z M 44 42 L 44 43 L 48 43 L 48 42 L 44 42 z M 20 46 L 20 47 L 24 47 L 24 46 L 20 46 z M 40 46 L 40 47 L 44 47 L 44 46 L 40 46 z M 24 50 L 24 51 L 28 51 L 28 50 L 24 50 z M 36 50 L 36 51 L 40 51 L 40 50 L 36 50 z M 28 54 L 28 55 L 36 55 L 36 54 L 28 54 z"/>
</svg>
